_includes/icons/color-business.svg

<svg fill="#666" height="50" viewBox="0 0 48 48" width="50" xmlns="http://www.w3.org/2000/svg"><path d="m11 44h-2c-.601562 0-1-.398437-1-1v-2h4v2c0 .601563-.398437 1-1 1z" fill="#263238"/><path d="m39 44h-2c-.601562 0-1-.398437-1-1v-2h4v2c0 .601563-.398437 1-1 1z" fill="#263238"/><path d="m27 7h-6c-1.699219 0-3 1.300781-3 3v3h2v-3c0-.601562.398438-1 1-1h6c.601563 0 1 .398438 1 1v3h2v-3c0-1.699219-1.300781-3-3-3z" fill="#37474f"/><path d="m40 43h-32c-2.199219 0-4-1.800781-4-4v-24c0-2.199219 1.800781-4 4-4h32c2.199219 0 4 1.800781 4 4v24c0 2.199219-1.800781 4-4 4z" fill="#78909c"/></svg>

<svg xmlns="http://www.w3.org/2000/svg" viewBox="0 0 48 48" width="50" height="50" fill="#666"><path d="M 11 44 L 9 44 C 8.398438 44 8 43.601563 8 43 L 8 41 L 12 41 L 12 43 C 12 43.601563 11.601563 44 11 44 Z" fill="#263238"/><path d="M 39 44 L 37 44 C 36.398438 44 36 43.601563 36 43 L 36 41 L 40 41 L 40 43 C 40 43.601563 39.601563 44 39 44 Z" fill="#263238"/><path d="M 27 7 L 21 7 C 19.300781 7 18 8.300781 18 10 L 18 13 L 20 13 L 20 10 C 20 9.398438 20.398438 9 21 9 L 27 9 C 27.601563 9 28 9.398438 28 10 L 28 13 L 30 13 L 30 10 C 30 8.300781 28.699219 7 27 7 Z" fill="#37474f"/><path d="M 40 43 L 8 43 C 5.800781 43 4 41.199219 4 39 L 4 15 C 4 12.800781 5.800781 11 8 11 L 40 11 C 42.199219 11 44 12.800781 44 15 L 44 39 C 44 41.199219 42.199219 43 40 43 Z" fill="#78909c"/></svg>
